X: 17201
T: Henry Reed's Schottische
R: barndance
M: 4/4
K: Cmajor
E>F|G>ce>c G2 c2|F>Ad>c AF A2|G>Bd>e f2 B2|(3c>ed (3cBA G2 E>F|
G>ce>c G2 c2|F>Ad>c AF A2|G>Bde f2 B2|[e2c2] [e2c2] [e2c2]||
(3g>^fg|a>ge>c G2 (3g>^fg|a>ef>d A2 A2|G>Bd>e f2 B2|(3c>ed (3cBA G2 (3g>^fg|
a>ge>c G2 (3g>^fg|a>ef>d A2 (3A>EF|G>Bd>e f2 B2|[e2c2] [e2c2] [e2c2]||
E>F|G>ce>c G2 c2|F>Ad>c AF A2|G>Bd>e f2 B2|(3c>ed (3cBA G2 E>F|
G>ce>c G2 c2|F>Ad>c AF A2|GBde f2 B2|[e2c2] [e2c2] [e2c2]||
g>^f|(3e>ef g>e c2 e2|d>ef>f A2 A2|G>Bd>e f>ef>g|a2 g2 g2 a>g|
(3e>ef g>e c2 e2|d>ef>f A2 (3A>EF|G>Bd>e f>gab|c'2 c'2 c'2||
g>^f|(3e>ef g>e c2 e2|d>ef>f A2 A2|G>Bd>e f>ef>g|a2 g2 g2 (3gag|
(3e>ef (3g>ge c2 e2|(3d>de f>f A2 (3A>EF|G>Bd>e f>gab|c'2 c'2 c'2||
E>F|G>ce>c G2 c2|F>Ad>c AF A2|G>Bd>e f2 B2|ce/d/ (3cBA G2 E>F|
G>ce>c G2 c2|F>Ad>c AF A2|G>Bd>e f2 B2|[e2c2] [e2c2] [e2c2]||
(3g^fg|a>ge>c G2 (3g>eg|a>ef>d A2 A>_B|G>Bd>e f2 B2|(3c>ed (3cBA G2 (3g>^fg|
a>gec G2 g2|a>ef>d A2 A>B|G>Bd>e f2 B2|c2 c2 c2||
E>F|G>ce>c G2 c2|F>Ad>c AF A2|G>Bd>e f2 B2|(3c>ed (3cBA G2 E>F|
G>ce>c G2 c2|F>Ad>c A>F A2|G>Bd>e f2 B2|[ec][ec] [ec][ec] [e2c2]||

